X: 25
M:C|
L:1/8
K:D
vAD((3FED) A2((3FED) | GEcE dEcE | AD((3FED) A2((3FED) | GEcE (3DDD D2 |
 AD((3FED) A2((3FED) | GEcE dEcE | AD((3FED) A2((3FED) | GEcE (3DDD D2 |]
vAdde fdec | ABcA dBcA | Adde fdec | GEdE DDD2 |


